main/images/logos/media/maxim_white_media.svg

<svg xmlns="http://www.w3.org/2000/svg" xmlns:xlink="http://www.w3.org/1999/xlink" version="1.1" width="701.514" height="133.374" enable-background="new 0 0 701.514 133.374" xml:space="preserve"><rect id="backgroundrect" width="100%" height="100%" x="0" y="0" fill="none" stroke="none"/>


<g class="currentLayer"><title>Layer 1</title><path d="M12.607,124.374l20-120.25c0,0,1.75-3.25,4,0s46.75,96,46.75,96s1.25,2.25,2.5-0.5s45.75-96,45.75-96s3.75-2.75,4.5,1.25  s17,113,17,113s1.25,9,8.75,10.75l6.25,1.25c0,0,3.25,1.25,0.5,2.5h-43c0,0-1.75-0.167-1.75-1.5c0,0-0.167-1.666,1.5-1.666  s7.167,1.332,7.333-4.334s-10.333-76.333-10.333-76.333s-0.5-2.167-1.5,0.167s-40.333,83.5-40.333,83.5s-1.667,1.833-3-0.167  S37.357,51.207,37.357,51.207s-1.667-2-2,0.167s-8.5,71.334-8.5,71.334s-1.667,6.166,10,7.333c0,0,4.167-0.333,4.333,1  s0,2.167-2.167,2H1.357c0,0-1.5-0.333-1.333-2c0,0-0.333-1.501,1.5-1.667s6-0.333,6-0.333S11.191,129.374,12.607,124.374z   M532.19,129.041c0,0-4.167,0.167-6,0.333s-1.5,1.667-1.5,1.667c-0.167,1.667,1.333,2,1.333,2h37.667  c2.167,0.167,2.333-0.667,2.167-2s-4.334-1-4.334-1c-11.666-1.167-10-7.333-10-7.333s8.167-69.167,8.5-71.334  c0.334-2.167,2-0.167,2-0.167s38.834,78.833,40.167,80.833s3,0.167,3,0.167s39.333-81.167,40.333-83.5s1.5-0.167,1.5-0.167  s10.5,70.667,10.334,76.333s-5.667,4.334-7.334,4.334c-1.666,0-1.5,1.666-1.5,1.666c0,1.333,1.75,1.5,1.75,1.5h43  c2.75-1.25-0.5-2.5-0.5-2.5l-6.25-1.25c-7.5-1.75-8.75-10.75-8.75-10.75s-16.25-109-17-113s-4.5-1.25-4.5-1.25s-44.5,93.25-45.75,96  s-2.5,0.5-2.5,0.5s-44.5-92.75-46.75-96s-4,0-4,0l-20,120.25C535.857,129.374,532.19,129.041,532.19,129.041z M194.607,120.374  c0,0-2,6.75-9.75,8.75l-4.75,0.5c0,0-1.5-0.25-1.75,1c0,0-0.75,2,1.5,2h36.75c0,0,2.583,0.251,2.583-1.416  c0,0,0.5-1.834-1.667-1.834h-5.833c0,0-5.833,0-4.333-5.833s11.833-33.167,11.833-33.167s0.667-1.666,2.667-1.666h34.833  c0,0,2.333-0.666,3,1.5l12.833,33.166c0,0,2.333,4.666-2.667,5.5s-6.333,1.167-6.333,1.167s-1,0.167-1,1.167  c0,0-0.333,1.666,1,1.666h44.167c0,0,1.666-0.334,1.833-2c0,0-0.167-1.667-2-1.5c0,0-11.167,0.833-17.667-16.5l-43.667-108.5  c0,0-2.167-2.666-4.167,0.167S194.607,120.374,194.607,120.374z M240.691,38.874l14.833,40c0.667,1.833-1.333,2-1.333,2  s-27.333,0.167-29.333,0s-0.833-2.5-0.833-2.5l14.333-39.333C239.524,36.041,240.691,38.874,240.691,38.874z M311.857,8.207  c0,1.667,2.5,1.5,2.5,1.5c10.833-0.333,18.334,9.167,18.334,9.167s28.833,45,32.166,49.333s0.833,6.334,0.833,6.334  s-29,41.167-34,47.5s-11.5,7.833-13.167,7.833s-2,1.667-2,1.667c0,1.167,2.333,1,2.333,1c3.166-0.5,11.834-0.667,11.834-0.667  c3.834-0.5,20.166,1.167,23,0.834s1.666-1.501,1.666-1.501c-0.167-1.334-4.166-1.333-4.166-1.333c-8.666-1.167-5-7.5-5-7.5  s23.833-37.333,25.5-39.833s2.333,0,2.333,0s22.333,35.166,26.167,41.166s-4.5,5.334-6.167,5.5s-2.5,1-2.667,1.667  s0,1.833,1.667,1.667s15.167-0.667,18.5-0.834s28.833,1.5,28.833,1.5c2.5,0,2.334-0.833,2.5-1.666s-4.666-1.334-4.666-1.334  c-10.833-1.5-15-9.166-15-9.166s-35.501-52.167-37.334-55.167s-0.667-4.333-0.667-4.333s34.5-47,35.667-49.333  s4.167-1.667,4.167-1.667s6.666-0.167,8.333-0.667s1.333-1.333,1.333-1.333c-0.167-1.833-3.666-1.667-3.666-1.667  s-13,0-15.334,0.333s-19.166-0.5-19.166-0.5c-1.5,0.167-2,1.5-2,1.5c0,1.5,1.667,1.667,1.667,1.667s2.166-0.333,6.333,0.667  s2.5,5.5,2.5,5.5s-23.5,35.167-25,37.5c-1.5,2.333-2.833-0.333-2.833-0.333s-23-37.5-23.834-40.167s1.5-3,1.5-3h5.667  c2.167,0,1.5-2.167,1.5-2.167c0-1.333-1.833-1-1.833-1h-45.834C312.857,7.04,311.857,6.541,311.857,8.207z M456.357,10.041  l6.833,0.333c7.5,0.333,6.667,11.667,6.667,11.667s-0.5,96.833-1.333,102.333s-8.5,5.333-10.333,5.333s-3,0.167-3.167,1.5  s1,2,2.667,2s11.166-0.166,19.333-0.666s28,0.833,30.333,0.833s1.834-1.833,1.834-1.833c0-1.333-3-1.334-3-1.334l-9.167-0.5  c-6.5-1-6.333-13-6.333-13s-0.834-86.833,0-97.5s9-8.667,11.333-9s3.333-0.833,2.5-2.5s-6.833-0.833-6.833-0.833  c-23.833,1.667-41.167-0.5-41.167-0.5s-1.334,0-1.334,1.5C455.19,7.874,454.69,10.041,456.357,10.041z" id="svg_1" class="" fill="#ffffff" fill-opacity="1"/><g id="svg_2" class="" fill="#ffffff" fill-opacity="1">
	<path d="M694.723,0c3.807,0,6.791,3.06,6.791,6.847c0,3.694-2.984,6.735-6.791,6.735c-3.787,0-6.79-3.041-6.79-6.735   C687.933,3.06,690.936,0,694.723,0z M694.723,12.705c3.19,0,5.69-2.762,5.69-5.858c0-3.209-2.481-5.97-5.69-5.97   c-3.189,0-5.689,2.779-5.689,5.97C689.033,9.943,691.552,12.705,694.723,12.705z M691.533,10.074   c0.839-0.112,0.988-0.093,0.988-0.615V4.31c0-0.896-0.131-0.97-0.951-1.007V3.041h3.47c1.194,0,2.295,0.56,2.295,1.81   c0,1.008-0.653,1.754-1.455,2.015l1.287,2.164c0.447,0.766,0.653,1.045,1.175,1.045v0.262h-1.249c-0.635,0-1.12-1.362-2.37-3.228   h-0.97v2.351c0,0.522,0.149,0.503,0.989,0.615v0.262h-3.209V10.074z M693.753,6.735h0.877c0.914,0,1.324-0.709,1.324-1.791   c0-1.157-0.634-1.53-1.361-1.53h-0.84V6.735z" id="svg_3" fill="#ffffff" fill-opacity="1"/>
</g></g></svg>

<?xml version="1.0" encoding="UTF-8"?>
<svg width="702px" height="134px" viewBox="0 0 702 134" version="1.1" xmlns="http://www.w3.org/2000/svg" xmlns:xlink="http://www.w3.org/1999/xlink">
    <!-- Generator: Sketch 46.2 (44496) - http://www.bohemiancoding.com/sketch -->
    <title>maxim_white_media</title>
    <desc>Created with Sketch.</desc>
    <defs></defs>
    <g id="Page-1" stroke="none" stroke-width="1" fill="none" fill-rule="evenodd">
        <g id="maxim_white_media">
            <rect id="backgroundrect" x="0" y="0" width="701.514" height="133.374"></rect>
            <g id="Layer-1" fill-rule="nonzero" fill="#FFFFFF">
                <path d="M12.607,124.374 L32.607,4.124 C32.607,4.124 34.357,0.874 36.607,4.124 C38.857,7.374 83.357,100.124 83.357,100.124 C83.357,100.124 84.607,102.374 85.857,99.624 C87.107,96.874 131.607,3.624 131.607,3.624 C131.607,3.624 135.357,0.874 136.107,4.874 C136.857,8.874 153.107,117.874 153.107,117.874 C153.107,117.874 154.357,126.874 161.857,128.624 L168.107,129.874 C168.107,129.874 171.357,131.124 168.607,132.374 L125.607,132.374 C125.607,132.374 123.857,132.207 123.857,130.874 C123.857,130.874 123.69,129.208 125.357,129.208 C127.024,129.208 132.524,130.54 132.69,124.874 C132.856,119.208 122.357,48.541 122.357,48.541 C122.357,48.541 121.857,46.374 120.857,48.708 C119.857,51.042 80.524,132.208 80.524,132.208 C80.524,132.208 78.857,134.041 77.524,132.041 C76.191,130.041 37.357,51.207 37.357,51.207 C37.357,51.207 35.69,49.207 35.357,51.374 C35.024,53.541 26.857,122.708 26.857,122.708 C26.857,122.708 25.19,128.874 36.857,130.041 C36.857,130.041 41.024,129.708 41.19,131.041 C41.356,132.374 41.19,133.208 39.023,133.041 L1.357,133.041 C1.357,133.041 -0.143,132.708 0.024,131.041 C0.024,131.041 -0.309,129.54 1.524,129.374 C3.357,129.208 7.524,129.041 7.524,129.041 C7.524,129.041 11.191,129.374 12.607,124.374 Z M532.19,129.041 C532.19,129.041 528.023,129.208 526.19,129.374 C524.357,129.54 524.69,131.041 524.69,131.041 C524.523,132.708 526.023,133.041 526.023,133.041 L563.69,133.041 C565.857,133.208 566.023,132.374 565.857,131.041 C565.691,129.708 561.523,130.041 561.523,130.041 C549.857,128.874 551.523,122.708 551.523,122.708 C551.523,122.708 559.69,53.541 560.023,51.374 C560.357,49.207 562.023,51.207 562.023,51.207 C562.023,51.207 600.857,130.04 602.19,132.04 C603.523,134.04 605.19,132.207 605.19,132.207 C605.19,132.207 644.523,51.04 645.523,48.707 C646.523,46.374 647.023,48.54 647.023,48.54 C647.023,48.54 657.523,119.207 657.357,124.873 C657.191,130.539 651.69,129.207 650.023,129.207 C648.357,129.207 648.523,130.873 648.523,130.873 C648.523,132.206 650.273,132.373 650.273,132.373 L693.273,132.373 C696.023,131.123 692.773,129.873 692.773,129.873 L686.523,128.623 C679.023,126.873 677.773,117.873 677.773,117.873 C677.773,117.873 661.523,8.873 660.773,4.873 C660.023,0.873 656.273,3.623 656.273,3.623 C656.273,3.623 611.773,96.873 610.523,99.623 C609.273,102.373 608.023,100.123 608.023,100.123 C608.023,100.123 563.523,7.373 561.273,4.123 C559.023,0.873 557.273,4.123 557.273,4.123 L537.273,124.373 C535.857,129.374 532.19,129.041 532.19,129.041 Z M194.607,120.374 C194.607,120.374 192.607,127.124 184.857,129.124 L180.107,129.624 C180.107,129.624 178.607,129.374 178.357,130.624 C178.357,130.624 177.607,132.624 179.857,132.624 L216.607,132.624 C216.607,132.624 219.19,132.875 219.19,131.208 C219.19,131.208 219.69,129.374 217.523,129.374 L211.69,129.374 C211.69,129.374 205.857,129.374 207.357,123.541 C208.857,117.708 219.19,90.374 219.19,90.374 C219.19,90.374 219.857,88.708 221.857,88.708 L256.69,88.708 C256.69,88.708 259.023,88.042 259.69,90.208 L272.523,123.374 C272.523,123.374 274.856,128.04 269.856,128.874 C264.856,129.708 263.523,130.041 263.523,130.041 C263.523,130.041 262.523,130.208 262.523,131.208 C262.523,131.208 262.19,132.874 263.523,132.874 L307.69,132.874 C307.69,132.874 309.356,132.54 309.523,130.874 C309.523,130.874 309.356,129.207 307.523,129.374 C307.523,129.374 296.356,130.207 289.856,112.874 L246.189,4.374 C246.189,4.374 244.022,1.708 242.022,4.541 C240.022,7.374 194.607,120.374 194.607,120.374 Z M240.691,38.874 L255.524,78.874 C256.191,80.707 254.191,80.874 254.191,80.874 C254.191,80.874 226.858,81.041 224.858,80.874 C222.858,80.707 224.025,78.374 224.025,78.374 L238.358,39.041 C239.524,36.041 240.691,38.874 240.691,38.874 Z M311.857,8.207 C311.857,9.874 314.357,9.707 314.357,9.707 C325.19,9.374 332.691,18.874 332.691,18.874 C332.691,18.874 361.524,63.874 364.857,68.207 C368.19,72.54 365.69,74.541 365.69,74.541 C365.69,74.541 336.69,115.708 331.69,122.041 C326.69,128.374 320.19,129.874 318.523,129.874 C316.856,129.874 316.523,131.541 316.523,131.541 C316.523,132.708 318.856,132.541 318.856,132.541 C322.022,132.041 330.69,131.874 330.69,131.874 C334.524,131.374 350.856,133.041 353.69,132.708 C356.524,132.375 355.356,131.207 355.356,131.207 C355.189,129.873 351.19,129.874 351.19,129.874 C342.524,128.707 346.19,122.374 346.19,122.374 C346.19,122.374 370.023,85.041 371.69,82.541 C373.357,80.041 374.023,82.541 374.023,82.541 C374.023,82.541 396.356,117.707 400.19,123.707 C404.024,129.707 395.69,129.041 394.023,129.207 C392.356,129.373 391.523,130.207 391.356,130.874 C391.189,131.541 391.356,132.707 393.023,132.541 C394.69,132.375 408.19,131.874 411.523,131.707 C414.856,131.54 440.356,133.207 440.356,133.207 C442.856,133.207 442.69,132.374 442.856,131.541 C443.022,130.708 438.19,130.207 438.19,130.207 C427.357,128.707 423.19,121.041 423.19,121.041 C423.19,121.041 387.689,68.874 385.856,65.874 C384.023,62.874 385.189,61.541 385.189,61.541 C385.189,61.541 419.689,14.541 420.856,12.208 C422.023,9.875 425.023,10.541 425.023,10.541 C425.023,10.541 431.689,10.374 433.356,9.874 C435.023,9.374 434.689,8.541 434.689,8.541 C434.522,6.708 431.023,6.874 431.023,6.874 C431.023,6.874 418.023,6.874 415.689,7.207 C413.355,7.54 396.523,6.707 396.523,6.707 C395.023,6.874 394.523,8.207 394.523,8.207 C394.523,9.707 396.19,9.874 396.19,9.874 C396.19,9.874 398.356,9.541 402.523,10.541 C406.69,11.541 405.023,16.041 405.023,16.041 C405.023,16.041 381.523,51.208 380.023,53.541 C378.523,55.874 377.19,53.208 377.19,53.208 C377.19,53.208 354.19,15.708 353.356,13.041 C352.522,10.374 354.856,10.041 354.856,10.041 L360.523,10.041 C362.69,10.041 362.023,7.874 362.023,7.874 C362.023,6.541 360.19,6.874 360.19,6.874 L314.356,6.874 C312.857,7.04 311.857,6.541 311.857,8.207 Z M456.357,10.041 L463.19,10.374 C470.69,10.707 469.857,22.041 469.857,22.041 C469.857,22.041 469.357,118.874 468.524,124.374 C467.691,129.874 460.024,129.707 458.191,129.707 C456.358,129.707 455.191,129.874 455.024,131.207 C454.857,132.54 456.024,133.207 457.691,133.207 C459.358,133.207 468.857,133.041 477.024,132.541 C485.191,132.041 505.024,133.374 507.357,133.374 C509.69,133.374 509.191,131.541 509.191,131.541 C509.191,130.208 506.191,130.207 506.191,130.207 L497.024,129.707 C490.524,128.707 490.691,116.707 490.691,116.707 C490.691,116.707 489.857,29.874 490.691,19.207 C491.525,8.54 499.691,10.54 502.024,10.207 C504.357,9.874 505.357,9.374 504.524,7.707 C503.691,6.04 497.691,6.874 497.691,6.874 C473.858,8.541 456.524,6.374 456.524,6.374 C456.524,6.374 455.19,6.374 455.19,7.874 C455.19,7.874 454.69,10.041 456.357,10.041 Z" id="svg_1"></path>
                <g id="svg_2" transform="translate(687.000000, 0.000000)">
                    <path d="M7.723,0 C11.53,0 14.514,3.06 14.514,6.847 C14.514,10.541 11.53,13.582 7.723,13.582 C3.936,13.582 0.933,10.541 0.933,6.847 C0.933,3.06 3.936,0 7.723,0 Z M7.723,12.705 C10.913,12.705 13.413,9.943 13.413,6.847 C13.413,3.638 10.932,0.877 7.723,0.877 C4.534,0.877 2.034,3.656 2.034,6.847 C2.033,9.943 4.552,12.705 7.723,12.705 Z M4.533,10.074 C5.372,9.962 5.521,9.981 5.521,9.459 L5.521,4.31 C5.521,3.414 5.39,3.34 4.57,3.303 L4.57,3.041 L8.04,3.041 C9.234,3.041 10.335,3.601 10.335,4.851 C10.335,5.859 9.682,6.605 8.88,6.866 L10.167,9.03 C10.614,9.796 10.82,10.075 11.342,10.075 L11.342,10.337 L10.093,10.337 C9.458,10.337 8.973,8.975 7.723,7.109 L6.753,7.109 L6.753,9.46 C6.753,9.982 6.902,9.963 7.742,10.075 L7.742,10.337 L4.533,10.337 L4.533,10.074 Z M6.753,6.735 L7.63,6.735 C8.544,6.735 8.954,6.026 8.954,4.944 C8.954,3.787 8.32,3.414 7.593,3.414 L6.753,3.414 L6.753,6.735 L6.753,6.735 Z" id="svg_3"></path>
                </g>
            </g>
        </g>
    </g>
</svg>
